X: 72
T:Old Tipparerry
R:jig
Z:Add by alf.warnock@rogers.com. Always play
Z:it after
Z:Garret Barry's
M:6/8
L:1/8
K:G
|:dcA ~G3|ABA ~G3|dcB ~G3|ADE FGA|
dcA ~G3|ABA GAd|fdd efe|gfd =cAF:|
|:GBd ~g3|gag ~g3|dgg dgg|a2g fga|
bag agf|gfe f2e|dcA d2e|fed cAF:|

